app/img/icomoon/phone.svg

<svg width="19" height="18" viewBox="0 0 19 18" fill="none" xmlns="http://www.w3.org/2000/svg">
<path d="M14.6917 18C14.5068 17.9995 14.3225 17.9798 14.1418 17.9414C10.7031 17.2522 7.53517 15.6364 5.00256 13.2798C2.524 10.9181 0.804981 7.91106 0.0534965 4.62261C-0.035113 4.21277 -0.0133647 3.78773 0.116649 3.3884C0.246663 2.98906 0.480566 2.62885 0.795856 2.34244L2.99544 0.291352C3.10779 0.188418 3.24128 0.109594 3.3872 0.0600228C3.53311 0.0104518 3.68818 -0.0087511 3.84228 0.00366726C4.00206 0.0198165 4.15625 0.0696821 4.294 0.149757C4.43176 0.229832 4.54973 0.338173 4.63963 0.46716L7.38911 4.40418C7.49222 4.55694 7.54199 4.73774 7.5311 4.91995C7.52021 5.10217 7.44924 5.27619 7.32862 5.41641L5.94838 7.01466C6.49809 8.19334 7.27657 9.25864 8.24145 10.1526C9.20008 11.0789 10.3332 11.8186 11.5793 12.3315L13.2895 11.0156C13.4331 10.9056 13.6079 10.8406 13.7906 10.8292C13.9733 10.8178 14.1553 10.8605 14.3123 10.9517L18.464 13.5515C18.6065 13.6339 18.7279 13.7465 18.8191 13.8808C18.9102 14.0151 18.9689 14.1677 18.9906 14.3271C19.0123 14.4865 18.9964 14.6485 18.9443 14.8011C18.8921 14.9538 18.805 15.093 18.6895 15.2084L16.5449 17.2648C16.3013 17.4996 16.0121 17.6855 15.6941 17.8117C15.376 17.9378 15.0354 18.0018 14.6917 18ZM3.7543 1.05851L1.55471 3.1096C1.37734 3.26972 1.24605 3.47181 1.17374 3.69599C1.10142 3.92017 1.09059 4.15873 1.14229 4.3882C1.84106 7.47396 3.4473 10.2976 5.76692 12.518C8.15027 14.735 11.1315 16.2549 14.3673 16.9025C14.6122 16.9521 14.866 16.9421 15.106 16.8732C15.3459 16.8044 15.5644 16.679 15.742 16.5083L17.8866 14.4518L13.8779 11.9426L12.0412 13.3597C11.9709 13.4136 11.8881 13.4501 11.7999 13.4658C11.7117 13.4816 11.6209 13.4763 11.5353 13.4503C10.0103 12.9059 8.62828 12.0418 7.48809 10.9197C6.30876 9.85273 5.39333 8.54152 4.8101 7.08391C4.78542 6.99567 4.7846 6.90276 4.80772 6.81413C4.83083 6.72549 4.8771 6.6441 4.94207 6.5778L6.42679 4.85702L3.7543 1.05851Z" fill="white"/>
</svg>

<svg width="19" height="18" fill="none" xmlns="http://www.w3.org/2000/svg"><path d="M14.692 18c-.185 0-.37-.02-.55-.059a18.85 18.85 0 01-9.14-4.661A17.285 17.285 0 01.054 4.623a2.367 2.367 0 01.064-1.235c.13-.399.364-.76.679-1.046l2.2-2.05A1.107 1.107 0 014.293.15c.138.08.256.188.346.317l2.75 3.937a.832.832 0 01-.061 1.012l-1.38 1.599a10.1 10.1 0 002.292 3.138 10.617 10.617 0 003.338 2.178l1.71-1.315a.918.918 0 011.023-.064l4.152 2.6c.143.082.264.194.355.329a1.047 1.047 0 01.125.92 1.047 1.047 0 01-.255.407l-2.144 2.057a2.638 2.638 0 01-1.853.735zM3.754 1.059l-2.2 2.05c-.177.16-.308.363-.38.587a1.313 1.313 0 00-.032.692 16.22 16.22 0 004.625 8.13 17.734 17.734 0 008.6 4.384 1.553 1.553 0 001.375-.394l2.145-2.056-4.01-2.51-1.836 1.418a.557.557 0 01-.506.09 11.076 11.076 0 01-4.047-2.53A10.374 10.374 0 014.81 7.084a.517.517 0 01.132-.506l1.485-1.721-2.673-3.798z" fill="#fff"/></svg>
